X:1
T:For ever here my rest shall be
T:For ever here my rest shall be - Guildford (Thomas Clark)
C:Thomas Clark
Z:p2, A Second Set of Psalm
Z:and Hymn Tunes,
Z:London: (1806)
%%score [ 1 2 3 4 ]
L:1/8
M:3/4
K:F
V:1 treble nm="SOPRANO" snm="S."
V:2 treble nm="ALTO" snm="A."
V:3 treble-8 transpose=-12 nm="TENOR" snm="T."
V:4 bass nm="BASS" snm="B."
V:1
 F2 | A4 c2 | f4 (3(cAc) | (d2 c2) B2 | (B2 A2) z2 | c2 F2 A2 | (DF B2) A2 | (A2 G2) z2 |: %8
w: Wash|me, and|make me _ _|thus _ thine|own; _|Wash me, and|mine _ _ thou|art; _|
w: For|ev- er|here my _ _|rest _ shall|be, _|Close to thy|bleed- * * ing|side; _|
w: My|dy- ing|Sa- viour _ _|and _ my|God, _|Foun- tain for|guilt _ _ and|sin, _|
 c2 c2 c2 | (cB AB) (cd) | (_e2 d2) c2 | d4 z2 | d2 e2 f2 | c4 d2 | (c2 B2) A2 | (A2 G2) B2 | %16
w: Wash me, but|not _ _ _ my _|feet _ a-|lone,|wash me, but|not my|feet _ a-|lone, _ My|
w: This all my|hope _ _ _ and _|all _ my|plea,|this all my|hope and|all _ my|plea: _ For|
w: Sprin- kle me|ev- * * * er _|with _ thy|blood,|sprin- kle me|ev- er|with _ thy|blood, _ And|
 (B2 !fermata!A2)!p! d2 | (d2 !fermata!c2)!f! f2 | (B>c d2) c2 | (B2 A2) G2 | F4 z2 :| %21
w: hands, _ my|hands, _ my|hands, _ _ my|head, _ my|heart.|
w: me, _ for|me, _ for|me _ _ the|Sa- * viour|died.|
w: cleanse, _ and|cleanse, _ and|cleanse, _ _ and|keep _ me|clean.|
V:2
 C2 | F4 G2 | F4 F2 | F4 E2 | F4 z2 | F2 F2 F2 | (DC DE) F2 | (F2 E2) z2 |: G2 F2 E2 | F4 F2 | %10
w: Wash|me, and|make me|thus thine|own;|Wash me, and|mine _ _ _ thou|art; _|Wash me, but|not my|
w: For|ev- er|here my|rest shall|be,|Close to thy|bleed- * * * ing|side; _|This all my|hope and|
w: My|dy- ing|Sa- viour|and my|God,|Foun- tain for|guilt _ _ _ and|sin, _|Sprin- kle me|ev- er|
 F4 F2 | F4 z2 | F2 E2 D2 | F4 F2 | (F2 E2) F2 | (F2 E2) E2 | !fermata!F4 z2 | !fermata!z4 F2 | %18
w: feet a-|lone,|wash me, but|not my|feet _ a-|lone, _ My|hands,|my|
w: all my|plea,|this all my|hope and|all _ my|plea: _ For|me,|for|
w: with thy|blood,|sprin- kle me|ev- er|with _ thy|blood, _ And|cleanse,|and|
 F4 F2 | F4 E2 | F4 z2 :| %21
w: hands, my|head, my|heart.|
w: me the|Sa- viour|died.|
w: cleanse, and|keep me|clean.|
V:3
 A2 | c4 c2 | A4 c2 | (B2 A2) c2 | c4 z2 | A2 c2 c2 | (FA B2) c2 | c4 z2 |: e2 c2 B2 | %9
w: Wash|me, and|make me|thus _ thine|own;|Wash me, and|mine _ _ thou|art;|Wash me, but|
w: For|ev- er|here my|rest _ shall|be,|Close to thy|bleed- * * ing|side;|This all my|
w: My|dy- ing|Sa- viour|and _ my|God,|Foun- tain for|guilt _ _ and|sin,|Sprin- kle me|
 (AG FG) (AB) | (c2 B2) A2 | B4 z2 | B2 G2 G2 | A4 F2 | (A2 B2) c2 | c4 c2 | !fermata!c4!p! B2 | %17
w: not _ _ _ my _|feet _ a-|lone,|wash me, but|not my|feet _ a-|lone, My|hands, my|
w: hope _ _ _ and _|all _ my|plea,|this all my|hope and|all _ my|plea: For|me, for|
w: ev- * * * er _|with _ thy|blood,|sprin- kle me|ev- er|with _ thy|blood, And|cleanse, and|
 (B2 !fermata!A2)!f! c2 | (d>c B2) A2 | (d2 c2) B2 | A4 z2 :| %21
w: hands, _ my|hands, _ _ my|head, _ my|heart.|
w: me, _ for|me _ _ the|Sa- * viour|died.|
w: cleanse, _ and|cleanse, _ _ and|keep _ me|clean.|
V:4
 F,2 | F,4"^6" E,2 | D,4"^6" A,2 | (B,2"^64" C2)"^7" C,2 | F,4 z2 | F,2"^6" A,2 F,2 | %6
w: Wash|me, and|make me|thus _ thine|own;|Wash me, and|
w: For|ev- er|here my|rest _ shall|be,|Close to thy|
w: My|dy- ing|Sa- viour|and _ my|God,|Foun- tain for|
 (B,"^6"A,"^5""^6" G,2) F,2 |"^64""^53" C,4 z2 |: C,2"^6" A,,2"^7" C,2 | F,4"^53""^64" F,2 | %10
w: mine _ _ thou|art;|Wash me, but|not my|
w: bleed- * * ing|side;|This all my|hope and|
w: guilt _ _ and|sin,|Sprin- kle me|ev- er|
"^!75""^64" F,4 F,2 | B,4 z2 | B,2"^64" B,2"^65" B,2 |"^6" A,4 B,2 |"^6" (A,2"^6" G,2) F,2 | %15
w: feet a-|lone,|wash me, but|not my|feet _ a-|
w: all my|plea,|this all my|hope and|all _ my|
w: with thy|blood,|sprin- kle me|ev- er|with _ thy|
"^Notes: Only the first verse of the text is given in the source: subsequent verses have been added editorially. The orderof parts in the source is Tenor - [Alto] - Air - [Bass], with the alto part printed in the treble clef an octave above soundingpitch. The following notes are printed as small grace notes in the source, and have been written out in full editorially:bar 4, beat 1, soprano Bb; bar 7, beat 1, soprano A and alto F; bar 15, beat 1, soprano A and alto F.""^64""^53" C,4"^7" C,2 | %16
w: lone, My|
w: plea: For|
w: blood, And|
 !fermata!F,4"^[Inst.]" B,,2 |"^64""^53" !fermata!F,4"^6" A,2 | B,4 F,2 | (B,2"^64" C2)"^75" C,2 | %20
w: hands, *|* my|hands, my|head, _ my|
w: me, *|* for|me the|Sa- * viour|
w: cleanse, *|* and|cleanse, and|keep _ me|
 F,4 z2 :| %21
w: heart.|
w: died.|
w: clean.|

